svg/emoji_u1f9df_200d_2642.svg

<?xml version="1.0" encoding="UTF-8" standalone="no"?>
<svg
   xmlns:dc="http://purl.org/dc/elements/1.1/"
   xmlns:cc="http://creativecommons.org/ns#"
   xmlns:rdf="http://www.w3.org/1999/02/22-rdf-syntax-ns#"
   xmlns:svg="http://www.w3.org/2000/svg"
   xmlns="http://www.w3.org/2000/svg"
   xmlns:sodipodi="http://sodipodi.sourceforge.net/DTD/sodipodi-0.dtd"
   xmlns:inkscape="http://www.inkscape.org/namespaces/inkscape"
   width="128"
   height="128"
   style="enable-background:new 0 0 128 128;"
   version="1.1"
   id="svg28"
   sodipodi:docname="emoji_u1f9df_200d_2642_fe0f.svg"
   inkscape:version="0.92+devel unknown">
  <metadata
     id="metadata34">
    <rdf:RDF>
      <cc:Work
         rdf:about="">
        <dc:format>image/svg+xml</dc:format>
        <dc:type
           rdf:resource="http://purl.org/dc/dcmitype/StillImage" />
      </cc:Work>
    </rdf:RDF>
  </metadata>
  <defs
     id="defs32" />
  <sodipodi:namedview
     pagecolor="#ffffff"
     bordercolor="#666666"
     inkscape:document-rotation="0"
     borderopacity="1"
     objecttolerance="10"
     gridtolerance="10"
     guidetolerance="10"
     inkscape:pageopacity="0"
     inkscape:pageshadow="2"
     inkscape:window-width="1680"
     inkscape:window-height="986"
     id="namedview30"
     showgrid="false"
     inkscape:zoom="2.7226563"
     inkscape:cx="-8.8167423"
     inkscape:cy="106.80609"
     inkscape:window-x="0"
     inkscape:window-y="27"
     inkscape:window-maximized="1"
     inkscape:current-layer="svg28" />
  <path
     id="XMLID_15_"
     d="m 14,118.09 v 9.89 h 100 v -9.89 C 114,102.92 89.46,95.22 64.38,95.25 39.46,95.28 14,102.03 14,118.09 Z"
     style="fill:#606060;fill-opacity:1"
     inkscape:connector-curvature="0" />
  <path
     id="XMLID_14_"
     d="m 63.95,90.25 h -9.08 v 9.59 c 0,4.34 3.7,7.86 8.26,7.86 h 1.65 c 4.56,0 8.26,-3.52 8.26,-7.86 v -9.59 z"
     style="fill:#539d47;fill-opacity:1"
     inkscape:connector-curvature="0" />
  <path
     style="fill:#76bf6a;fill-opacity:1"
     d="M 63.890625 13.570312 C 56.196143 13.570312 50.300179 15.458622 45.830078 18.873047 A 7.9959433 4.6145716 67.851655 0 1 45.486328 19.613281 A 7.9959433 4.6145716 67.851655 0 1 43.314453 21.105469 C 35.628487 28.98848 33.169922 42.498817 33.169922 58.960938 C 33.169922 85.470938 52.060625 93.560547 63.890625 93.560547 C 75.720625 93.560547 94.609375 85.470938 94.609375 58.960938 C 94.609375 32.450937 88.240625 13.570312 63.890625 13.570312 z "
     id="XMLID_13_" />
  <rect
     id="XMLID_10_"
     height="8.46"
     style="opacity:0.54000005"
     width="3"
     x="93.440002"
     y="119.54" />
  <rect
     id="XMLID_9_"
     height="8.46"
     style="opacity:0.54000005"
     width="3"
     x="31.35"
     y="119.54" />
  <path
     inkscape:connector-curvature="0"
     style="fill:#539d47;opacity:1;vector-effect:none;fill-opacity:1;stroke-width:1;stroke-linecap:butt;stroke-linejoin:miter;stroke-miterlimit:4;stroke-dasharray:none;stroke-dashoffset:0;stroke-opacity:1"
     d="m 96.54,52.84 c 0,0 5.97,1.03 5.97,7.47 0,5.68 -4.36,7.92 -8.72,7.92 V 52.84 Z"
     id="XMLID_5_" />
  <path
     inkscape:connector-curvature="0"
     style="fill:#539d47;opacity:1;vector-effect:none;fill-opacity:1;stroke-width:1;stroke-linecap:butt;stroke-linejoin:miter;stroke-miterlimit:4;stroke-dasharray:none;stroke-dashoffset:0;stroke-opacity:1"
     d="m 31.38,52.84 c 0,0 -5.97,1.03 -5.97,7.47 0,5.68 4.36,7.92 8.72,7.92 V 52.84 Z"
     id="XMLID_4_" />
  <path
     style="fill:#5f4f4f;fill-opacity:1"
     d="M 64.009766 7.0292969 C 63.799766 7.0292969 63.300781 7.0390625 63.300781 7.0390625 C 58.668342 7.1309287 54.598393 7.6999807 51.013672 8.6230469 A 10.023575 5.7918682 67.935062 0 1 50.882812 13.515625 A 10.023575 5.7918682 67.935062 0 1 46.228516 16.802734 A 7.9959433 4.6145716 67.851655 0 1 45.486328 19.613281 A 7.9959433 4.6145716 67.851655 0 1 41.212891 20.683594 A 9.0002182 4.8306044 68.147469 0 1 40.767578 23.519531 A 9.0002182 4.8306044 68.147469 0 1 35.162109 24.632812 A 10.023575 5.7918682 67.935062 0 1 29.333984 27.244141 C 28.311918 30.224224 27.859375 33.195354 27.859375 35.890625 C 27.859375 47.150625 27.869141 55.429688 27.869141 55.429688 C 27.869141 55.429688 28.299609 54.969844 29.099609 54.339844 C 29.949609 53.659844 30.900391 53.279297 30.900391 53.279297 L 32.279297 62.689453 L 41.359375 43.349609 C 41.409375 43.229609 41.539922 43.159922 41.669922 43.169922 L 47.050781 43.779297 C 52.460781 44.389297 57.890312 44.690937 63.320312 44.710938 L 63.320312 44.720703 C 63.560313 44.720703 63.789297 44.710937 64.029297 44.710938 C 64.269297 44.710938 64.500234 44.720703 64.740234 44.720703 L 64.740234 44.699219 C 70.170234 44.679219 75.599766 44.389531 81.009766 43.769531 L 86.390625 43.160156 C 86.520625 43.150156 86.639219 43.219844 86.699219 43.339844 L 95.779297 62.679688 L 97.160156 53.269531 C 97.160156 53.269531 98.100938 53.650078 98.960938 54.330078 C 99.760937 54.970078 100.18945 55.419922 100.18945 55.419922 C 100.18945 55.419922 100.19922 47.140859 100.19922 35.880859 C 100.19122 32.983359 97.297184 22.846699 93.568359 19.544922 L 96.720703 12.134766 L 90.083984 14.392578 C 85.26191 12.26569 71.530703 7.1740625 64.720703 7.0390625 C 64.720703 7.0390625 64.229766 7.0192969 64.009766 7.0292969 z "
     id="XMLID_1_" />
  <g
     id="g4362"
     transform="translate(-0.64797925)">
    <path
       style="fill:#ffffff;fill-opacity:1;stroke-width:1"
       inkscape:connector-curvature="0"
       id="path6"
       d="m 51.41261,64.190606 c -2.230449,-0.660276 -3.433442,-3.334487 -2.655783,-5.96146 0.792331,-2.676538 3.207621,-4.279634 5.403176,-3.683596 2.230449,0.660277 3.433442,3.334488 2.655783,5.96146 -0.742766,2.691211 -3.172728,4.343873 -5.403176,3.683596 z"
       class="st1" />
    <path
       style="fill:#ffffff;fill-opacity:1;stroke-width:0.99999994"
       inkscape:connector-curvature="0"
       id="path8"
       d="m 78.781774,64.242556 c 2.261286,-1.4603 2.642467,-4.839575 0.922558,-7.502868 -1.75236,-2.713544 -5.007038,-3.673638 -7.218073,-2.24579 -2.261287,1.4603 -2.642467,4.839576 -0.922558,7.502869 1.75236,2.713544 4.956786,3.706088 7.218073,2.245789 z"
       class="st1" />
    <path
       style="fill:#47423c;fill-opacity:1;stroke-width:1"
       class="st2"
       d="M 75.272175,74.875738 C 74.445108,72.80807 70.25808,69.551493 64.623685,69.448109 v 0 c -0.05169,0 -0.05169,0 -0.103384,0 -0.05169,0 -0.05169,0 -0.103383,0 v 0 c -5.582704,0.103384 -9.71804,3.411653 -10.596799,5.427629 -0.878759,2.067668 -0.103383,3.463344 2.222743,3.463344 2.171052,0 7.702064,0 8.477439,0 v 0 c 0,0 0,0 0.05169,0 0.05169,0 0.05169,0 0.05169,0 v 0 c 0.723683,0 6.254695,0 8.477439,0 2.274434,0 3.04981,-1.395676 2.171051,-3.463344 z"
       id="path12"
       inkscape:connector-curvature="0" />
    <path
       style="fill:#c08198;fill-opacity:1;stroke-width:1"
       class="st3"
       d="m 75.013716,77.770473 c 0,0 0,-0.361842 -0.568608,-0.516917 -0.775376,-0.206767 -1.912593,0.620301 -3.618419,0.568609 -1.705826,-0.05169 -4.031953,-0.465225 -5.531012,-0.465225 -1.705826,-0.05169 -1.757518,0.982142 -1.757518,0.982142 0,0 8.167289,0 9.356198,0 1.188909,0 1.705826,-0.206767 2.119359,-0.568609 z"
       id="path14"
       inkscape:connector-curvature="0" />
    <path
       style="fill:#c08198;fill-opacity:1;stroke-width:1"
       class="st3"
       d="m 66.898119,78.339082 c 2.171052,0.413534 3.101502,1.033834 3.101502,3.670111 0,1.137217 -0.155075,2.532893 0,3.67011 0.206767,1.240601 1.085526,1.49906 1.705827,1.395676 1.499059,-0.258458 0.982142,-2.791351 1.188909,-5.582703 0.155075,-2.11936 1.809209,-2.222743 2.119359,-3.670111 z"
       id="path16"
       inkscape:connector-curvature="0" />
  </g>
  <g
     id="g4366"
     transform="translate(1.702912,0.55093257)">
    <path
       sodipodi:nodetypes="sssss"
       inkscape:connector-curvature="0"
       id="path4294"
       d="m 43.545178,74.130075 c -1.079624,2.194358 -0.970705,3.294657 -3.087753,3.294657 -2.117048,0 -4.638214,-1.856938 -4.638214,-4.302504 0,-2.445567 4.903685,-4.78564 6.996723,-4.467704 2.88269,0.437888 1.720979,3.45983 0.729244,5.475551 z"
       style="opacity:1;vector-effect:none;fill:#6aac5f;fill-opacity:1;stroke-width:1;stroke-linecap:butt;stroke-linejoin:miter;stroke-miterlimit:4;stroke-dasharray:none;stroke-dashoffset:0;stroke-opacity:1" />
    <path
       sodipodi:nodetypes="sssss"
       inkscape:connector-curvature="0"
       id="path4313"
       d="m 46.635677,78.426247 c 0,1.14382 -0.290999,2.494975 -1.286985,2.494975 -0.995986,0 -2.3198,-1.351155 -2.3198,-2.494975 0,-1.14382 1.333907,-1.99044 2.329893,-1.99044 0.995987,0 1.276892,0.84662 1.276892,1.99044 z"
       style="opacity:1;vector-effect:none;fill:#6aac5f;fill-opacity:1;stroke-width:1;stroke-linecap:butt;stroke-linejoin:miter;stroke-miterlimit:4;stroke-dasharray:none;stroke-dashoffset:0;stroke-opacity:1" />
  </g>
</svg>

<svg xmlns="http://www.w3.org/2000/svg" width="128" height="128"><path d="M14 118.09v9.89h100v-9.89c0-15.17-24.54-22.87-49.62-22.84-24.92.03-50.38 6.78-50.38 22.84z" fill="#606060"/><path d="M63.95 90.25h-9.08v9.59c0 4.34 3.7 7.86 8.26 7.86h1.65c4.56 0 8.26-3.52 8.26-7.86v-9.59z" fill="#539d47"/><path d="M63.89 13.57c-7.694 0-13.59 1.889-18.06 5.303a7.996 4.615 67.852 0 1-.344.74 7.996 4.615 67.852 0 1-2.172 1.492C35.628 28.988 33.17 42.5 33.17 58.961c0 26.51 18.89 34.6 30.72 34.6 11.83 0 30.72-8.09 30.72-34.6s-6.37-45.39-30.72-45.39z" fill="#76bf6a"/><path opacity=".54" d="M93.44 119.54h3V128h-3zM31.35 119.54h3V128h-3z"/><path d="M96.54 52.84s5.97 1.03 5.97 7.47c0 5.68-4.36 7.92-8.72 7.92V52.84zM31.38 52.84s-5.97 1.03-5.97 7.47c0 5.68 4.36 7.92 8.72 7.92V52.84z" fill="#539d47"/><path d="M64.01 7.03c-.21 0-.71.01-.71.01-4.632.09-8.702.66-12.286 1.583a10.024 5.792 67.935 0 1-.131 4.893 10.024 5.792 67.935 0 1-4.654 3.287 7.996 4.615 67.852 0 1-.743 2.81 7.996 4.615 67.852 0 1-4.273 1.07 9 4.83 68.147 0 1-.445 2.837 9 4.83 68.147 0 1-5.606 1.113 10.024 5.792 67.935 0 1-5.828 2.611c-1.022 2.98-1.475 5.951-1.475 8.647 0 11.26.01 19.539.01 19.539s.43-.46 1.23-1.09c.85-.68 1.801-1.06 1.801-1.06l1.38 9.41 9.08-19.34a.31.31 0 0 1 .31-.18l5.38.61c5.41.61 10.84.91 16.27.93v.01c.24 0 .47-.01.71-.01s.47.01.71.01v-.02c5.43-.02 10.86-.31 16.27-.93l5.38-.61c.13-.01.25.06.31.18l9.08 19.34 1.38-9.41s.94.38 1.8 1.06c.8.64 1.23 1.09 1.23 1.09s.01-8.28.01-19.54c-.009-2.897-2.903-13.033-6.632-16.335l3.153-7.41-6.637 2.258c-4.822-2.127-18.553-7.219-25.363-7.354 0 0-.491-.02-.711-.01z" fill="#5f4f4f"/><path d="M50.765 64.19c-2.23-.66-3.434-3.334-2.656-5.96.792-2.677 3.207-4.28 5.403-3.684 2.23.66 3.433 3.334 2.656 5.961-.743 2.691-3.173 4.344-5.403 3.684zM78.134 64.243c2.261-1.46 2.642-4.84.922-7.503-1.752-2.714-5.007-3.674-7.218-2.246-2.261 1.46-2.642 4.84-.922 7.503 1.752 2.713 4.957 3.706 7.218 2.246z" class="st1" fill="#fff"/><path class="st2" d="M74.624 74.876c-.827-2.068-5.014-5.325-10.648-5.428h-.207c-5.583.103-9.718 3.412-10.597 5.428-.879 2.067-.103 3.463 2.223 3.463h17.058c2.275 0 3.05-1.396 2.171-3.463z" fill="#47423c"/><path class="st3" d="M74.366 77.77s0-.361-.569-.516c-.775-.207-1.912.62-3.618.568-1.706-.052-4.032-.465-5.531-.465-1.706-.052-1.758.982-1.758.982h9.356c1.19 0 1.706-.207 2.12-.569z" fill="#c08198"/><path class="st3" d="M66.25 78.34c2.171.413 3.102 1.033 3.102 3.67 0 1.136-.155 2.532 0 3.67.206 1.24 1.085 1.498 1.705 1.395 1.5-.258.983-2.791 1.19-5.583.154-2.12 1.809-2.222 2.119-3.67z" fill="#c08198"/><g fill="#6aac5f"><path d="M45.248 74.681c-1.08 2.194-.97 3.295-3.088 3.295-2.117 0-4.638-1.857-4.638-4.303 0-2.445 4.904-4.785 6.997-4.468 2.883.438 1.72 3.46.73 5.476zM48.339 78.977c0 1.144-.291 2.495-1.287 2.495s-2.32-1.351-2.32-2.495c0-1.144 1.334-1.99 2.33-1.99s1.277.846 1.277 1.99z"/></g></svg>
